X:65
T:Westphalia Harmony 2
C:adapted from The Delivery Boys - www.deliveryboys.net
M:3/4
L:1/8
R:Waltz
K:G
z4|: "G"D4E2 | "GM7"G4A2 | "Em"g6| "Bm"g4b2 | "G"d4e2 | "E"^g6 | 
"Am"a2^g2=g2| "D"f4z2|A4B2 | "Am"G4g2 |"D"f4 fg | d4e2 | 
d4c2 |1 "D7"d4 c2 | "G"d4de | "D"d4z2 :|2 d4F2 | "G"D3F GA | D3z z2 ||
|: "G"D2zD (3DDD| "GM7"F2zF (3FFF | "Em"G2A2B,2 | "Bm"D6 | "G"(3ded c2B2 | "G"(3ded c2B2 | 
"Am"a2^g2=g2| "D"f6 | "Am"c2zc (3ccc | "G#dim"c2zc (3ccc |"C"c2d2e2 | "D"d4c2 | 
B3_B =Bc |1 "D7"B2_B2A2| "G"G4 GA | G4z2 :|2"D" B2d2_e2| "G"(3gag fg dc' | [b6d6]|]
